src/assets/filled/Medal.svg

<svg width="24" height="24" viewBox="0 0 24 24"  xmlns="http://www.w3.org/2000/svg">
<path d="M12 15C15.7279 15 18.75 12.0899 18.75 8.5C18.75 4.91015 15.7279 2 12 2C8.27208 2 5.25 4.91015 5.25 8.5C5.25 12.0899 8.27208 15 12 15Z" />
<path d="M15.79 15.6101C16.12 15.4401 16.5 15.6901 16.5 16.0601V20.9101C16.5 21.8101 15.87 22.2501 15.09 21.8801L12.41 20.6101C12.18 20.5101 11.82 20.5101 11.59 20.6101L8.91 21.8801C8.13 22.2401 7.5 21.8001 7.5 20.9001L7.52 16.0601C7.52 15.6901 7.91 15.4501 8.23 15.6101C9.36 16.1801 10.64 16.5001 12 16.5001C13.36 16.5001 14.65 16.1801 15.79 15.6101Z" />
</svg>

<?xml version="1.0" encoding="UTF-8"?>
<svg width="24" height="24" viewBox="0 0 24 24" xmlns="http://www.w3.org/2000/svg">
 <path d="m12 15c3.7279 0 6.75-2.9101 6.75-6.5 0-3.5898-3.0221-6.5-6.75-6.5-3.7279 0-6.75 2.9102-6.75 6.5 0 3.5899 3.0221 6.5 6.75 6.5z"/>
 <path d="m15.79 15.61c0.33-0.17 0.71 0.08 0.71 0.45v4.85c0 0.9-0.63 1.34-1.41 0.97l-2.68-1.27c-0.23-0.1-0.59-0.1-0.82 0l-2.68 1.27c-0.78 0.36-1.41-0.08-1.41-0.98l0.02-4.84c0-0.37 0.39-0.61 0.71-0.45 1.13 0.57 2.41 0.89 3.77 0.89s2.65-0.32 3.79-0.89z"/>
</svg>
